X:3115
T:Cloon Reel, The
S:John B. Walsh
R:R
E:7
I:speed 350
M:C|
Z: Humors of Toomagh;  From Matt Molloy and T. Peoples
K:G
|dcAE G3 E|GEcE G3 z|dcAE G3 E|GEcE ED D2|
dcAE G3 E|GEcE G3 A|c2 ec ~g3a|gedc AG ~G2:|
|c2 ec gcec| ~g3 a gedB| c2 ec gcea|gedc AGAB|
c2 ec gcec| ~g3 a gede|gedcd2 ed|cAGE ED ~D2:|
